X: 9
T: Czemuś, Panie, odstąpił? Czemuś twarz swoje
C: Mikołaj Gomółka
%%abc-version 2.0
%%abcx-abcm2ps-target-version 5.9.1 (29 Sep 2008)
%%abc-creator hum2abc beta
%%abcx-conversion-date 2021/10/04 07:59:10
%%abc-edited-by Leszek Kubiak
%%abcx-initial-encoding-date data 2020=-2=01
%%humdrum-veritas 1060656806
%%humdrum-veritas-data 468963144
%%linebreak <none>
%%barnumbers 0
L: 1/4
M: C|
N: Derived from pl-wn--sd-xvi-qu-273--010_gomolka-mikolaj--czemus-panie-odstapil-czemus-twarz-swoje.krn
%%staves [1 2 3 4]
V: 1
V: 2 clef=alto
V: 3 clef=tenor
V: 4 clef=bass
K: F
[V:1] D4A2B2 [|] 
[V:2] A,4D3E [|] 
[V:3] D,4F,2G,2 [|] 
[V:4] D,4D,2G,,2 [|] 
[V:1] A2c2B2AG [|] 
[V:2] F2E2D2CB, [|] 
[V:3] A,2A,2F2ED [|] 
[V:4] D,2C,2D,2E,2 [|] 
[V:1] A2d2^c2d2 [|] 
[V:2] A,2A2A2F2 [|] 
[V:3] C2F2E2D2 [|] 
[V:4] F,2D,2A,2B,2 [|] 
[V:1] B4A2G4 [|] 
[V:2] G2G,2A,2B,2 [|] 
[V:3] D4D2D4 [|] 
[V:4] G,4F,2G,2 [|] 
[V:1] ^FE^F2A2 [|] 
[V:2] G,4A,2^C2 [|] 
[V:3] ^C2D2E2 [|] 
[V:4] _E,4D,2A,,2 [|] 
[V:1] A2B2A2c2 [|] 
[V:2] D2GFED/E/FE [|] 
[V:3] F2D2C2A,2 [|] 
[V:4] D,2G,,2A,,2F,,2 [|] 
[V:1] B2A2>G2G4 [|] 
[V:2] DEF4_E2 [|] 
[V:3] B,CD4B,2 [|] 
[V:4] G,,2D,4_E,2 [|] 
[V:1] F2G4 [|] 
[V:2] _E2DCDCD=E [|] 
[V:3] C2A,2=B,4 [|] 
[V:4] C,2D,2G,,4 [|] 
[V:1] A4c2B2 [|] 
[V:2] FEFGA2GF [|] 
[V:3] D2C2F2D2 [|] 
[V:4] D,2F,4G,2 [|] 
[V:1] A2c2d4 [|] 
[V:2] E2A4G2 [|] 
[V:3] C2FEDCD2 [|] 
[V:4] A,2F,2B,4 [|] 
[V:1] ^c2d2B2A4 [|] 
[V:2] A2A2G2C2 [|] 
[V:3] E2F2B,CD4 [|] 
[V:4] A,2D,2G,2F,2 [|] 
[V:1] G2A4 [|] 
[V:2] F2EDC4 [|] 
[V:3] CB,A,4 [|] 
[V:4] D,2E,2F,3E, [|] 
[V:1] A4B3A [|] 
[V:2] F2>E2D2D4 [|] 
[V:3] D4D3C [|] 
[V:4] D,2>C,2B,,4 [|] 
[V:1] GFG2^F2A2 [|] 
[V:2] C2D2C2 [|] 
[V:3] B,2A,G,A,2A,2 [|] 
[V:4] E,2E,2D,2F,2 [|] 
[V:1] c2B4A2 [|] 
[V:2] _E2C2B,CD2 [|] 
[V:3] G,A,B,CD2A,2 [|] 
[V:4] C,2G,4F,2 [|] 
[V:1] G2G4^F2 [|] 
[V:2] _E2E2D3C [|] 
[V:3] B,2CB,A,G,A,2 [|] 
[V:4] _E,2C,2D,4 [|] 
[V:1] G8 |]  
[V:2] B,8 |]  
[V:3] G,8 |]  
[V:4] G,,8 |]  


